X:01
T: The Exile of Erin
C: Tony Sullivan
O: transcribed by Will Harmon from The Magic Square's CD
M: 4/4
L: 1/8
Z: Contributed 20040626163859 by Zina Lee zlee@ntw.net
K: D mix
|: FGAG FDDE | EDAG FDAc | de=fe dcAG | (3EFG AB{B}[c3G3]G |
| (3EFG AG FDDE | (3FED AG FDCD | {G,}[A,3D3] D C ~A,3 |1 G,A,CD EDDE :|2 G,A,CD EDDA ||
| d3 d cAGc | (3ccA GA FAEA | d3 d ^cdef | geag fdd^c |
| d2 Ad cAGc | (3ccA GA FAEA | [D3A3]B cAdB | cAGE D3 ^c |
| d2 ed cAGc | AcGA FAEA | d3 d ^cdef | geag fd(3dd^c |
| d2 Ad cAGc | (3ccA GA FAEA | D2 AB cAdB | cAGE D3 E ||
